assets/images/search-icon.svg

<svg width="20" height="20" viewBox="0 0 20 20" fill="none" xmlns="http://www.w3.org/2000/svg">
<path d="M8.78435 1.25C4.6319 1.25 1.25 4.63187 1.25 8.78434C1.25 12.9368 4.6319 16.3187 8.78435 16.3187C10.5989 16.3187 12.2669 15.6759 13.5693 14.6022H13.5768L17.5035 18.5365C17.7882 18.8212 18.2517 18.8212 18.5364 18.5365C18.8212 18.2517 18.8212 17.7958 18.5364 17.5111L14.5946 13.5769C14.5958 13.5744 14.5946 13.5693 14.5946 13.5693C15.6683 12.267 16.3187 10.599 16.3187 8.78441C16.3187 4.63195 12.9368 1.25 8.78435 1.25ZM8.78435 2.70826C12.1487 2.70826 14.8604 5.41999 14.8604 8.78434C14.8604 12.1487 12.1487 14.8604 8.78435 14.8604C5.42001 14.8604 2.70826 12.1487 2.70826 8.78434C2.70826 5.41999 5.42001 2.70826 8.78435 2.70826Z" fill="#1E1E1E"/>
<path fill-rule="evenodd" clip-rule="evenodd" d="M1.1875 8.78434C1.1875 4.59736 4.59738 1.1875 8.78435 1.1875H8.85782C13.0112 1.22708 16.3812 4.62193 16.3812 8.78441C16.3812 10.5957 15.7385 12.2621 14.6754 13.5692L18.5806 17.4669C18.8897 17.776 18.8898 18.2715 18.5806 18.5807C18.2715 18.8898 17.7684 18.8898 17.4593 18.5807L13.5692 14.683C12.2619 15.746 10.5955 16.3812 8.78435 16.3812C4.59738 16.3812 1.1875 12.9713 1.1875 8.78434ZM8.75081 1.31257C4.64823 1.33072 1.3125 4.67758 1.3125 8.78434C1.3125 12.9022 4.66641 16.2562 8.78435 16.2562C10.5839 16.2562 12.2379 15.6187 13.5295 14.554L13.5468 14.5397H13.6028L17.5477 18.4923C17.808 18.7525 18.2319 18.7526 18.4923 18.4923C18.7526 18.2319 18.7526 17.8156 18.4923 17.5553L14.5185 13.5892L14.5323 13.5616L14.5332 13.5569C14.5349 13.5488 14.5387 13.5389 14.5464 13.5296C15.6113 12.2379 16.2562 10.5838 16.2562 8.78441C16.2562 4.66647 12.9023 1.31257 8.78433 1.31257H8.75081ZM8.78435 2.77076C5.45453 2.77076 2.77076 5.45451 2.77076 8.78434C2.77076 12.1141 5.45453 14.7979 8.78435 14.7979C12.1142 14.7979 14.7979 12.1141 14.7979 8.78434C14.7979 5.45451 12.1142 2.77076 8.78435 2.77076ZM2.64576 8.78434C2.64576 5.38547 5.38549 2.64576 8.78435 2.64576C12.1832 2.64576 14.9229 5.38547 14.9229 8.78434C14.9229 12.1832 12.1832 14.9229 8.78435 14.9229C5.3855 14.9229 2.64576 12.1832 2.64576 8.78434Z" fill="#1E1E1E"/>
</svg>

<svg width="20" height="20" fill="none" xmlns="http://www.w3.org/2000/svg"><path d="M8.784 1.25c-4.152 0-7.534 3.382-7.534 7.534 0 4.153 3.382 7.535 7.534 7.535a7.498 7.498 0 004.785-1.717h.008l3.926 3.934a.731.731 0 001.033 0 .722.722 0 000-1.025l-3.941-3.934v-.008a7.504 7.504 0 001.724-4.785c0-4.152-3.382-7.534-7.535-7.534zm0 1.458a6.065 6.065 0 016.076 6.076 6.065 6.065 0 01-6.076 6.076 6.065 6.065 0 01-6.076-6.076 6.065 6.065 0 016.076-6.076z" fill="#1E1E1E"/><path fill-rule="evenodd" clip-rule="evenodd" d="M1.188 8.784c0-4.187 3.41-7.597 7.596-7.597h.074c4.153.04 7.523 3.435 7.523 7.597a7.565 7.565 0 01-1.706 4.785l3.906 3.898a.785.785 0 010 1.114.794.794 0 01-1.122 0l-3.89-3.898a7.56 7.56 0 01-4.785 1.698c-4.187 0-7.597-3.41-7.597-7.597zM8.75 1.313c-4.103.018-7.438 3.365-7.438 7.471 0 4.118 3.353 7.472 7.471 7.472 1.8 0 3.454-.637 4.745-1.702l.018-.014h.056l3.945 3.952c.26.26.684.26.944 0a.66.66 0 000-.937l-3.974-3.966.014-.027.001-.005a.063.063 0 01.013-.027 7.442 7.442 0 001.71-4.746c0-4.118-3.354-7.471-7.472-7.471H8.75zm.033 1.458A6.003 6.003 0 002.77 8.784a6.003 6.003 0 006.013 6.014 6.003 6.003 0 006.014-6.014 6.003 6.003 0 00-6.014-6.013zM2.646 8.784a6.128 6.128 0 016.138-6.138 6.128 6.128 0 016.139 6.138 6.128 6.128 0 01-6.139 6.139 6.128 6.128 0 01-6.138-6.139z" fill="#1E1E1E"/></svg>
